markup/sourceimages/logo-white.svg

<svg xmlns="http://www.w3.org/2000/svg" width="324" height="96"><path fill-rule="evenodd" fill="#FFF" d="M262.701 49.261l16.072-39.86h24.08l21.13 52.408c-18.09-5.045-36.007-10.169-61.282-12.548zm29.881-15.003c-.761-2.471-1.431-5.242-1.769-7.861-.339 2.619-1.009 5.39-1.769 7.861l-2.611 8.085h8.672l-2.523-8.085zm-15.475 60.298h-7.705l-3.629-11.768-3.948 11.768h-2.038l-3.629-6.142 5.667-13.136h7.705l7.577 19.278zm-3.821-19.278h7.068l2.798 7.48 1.723-7.48h6.622v5.674l-6.686 13.604h-7.704l2.738-5.503-6.559-13.775zm-14.488 19.278h-8.346l-3.775-6.474h-.799v6.474h-7.606V75.278h7.606v6.47h1.027l3.547-6.47h8.346l-5.917 9.667 5.917 9.611zm-24.213-50.342h-11.788v3.777c-7.168.152-14.83.489-23.056 1.037V9.401h23.056v17.594h11.788V9.401h23.056v39.428c-7.066-.54-14.707-.866-23.056-.927v-3.688zm-66.732-17.593l-7.534 26.194c-7.039.855-14.374 1.82-22.103 2.933l18.18-46.347h22.647l16.886 39.9a682.554 682.554 0 0 0-19.965 1.75l-8.111-24.43zM63.447 60.461c-6.835-6.368-10.29-15.081-10.29-24.857 0-19.978 14.332-35.591 42.77-35.591 28.439 0 42.884 15.613 42.884 35.591 0 7.923-2.309 15.135-6.823 20.983-27.485 3.642-50.131 4.548-68.541 3.874zm54.649-24.966c-.266-3.201-.666-7.438-8.193-12.271-7.527-4.833-9.725-6.753-8.992-8.673.733-1.92 3.53-4.804 4.862-5.15 1.333-.345.866-1.736-1.065-1.603-1.932.133-8.659-1.059-14.521 7.482 0 0-23.18-1.589-16.652 16.088 0 0 .533.529-.4 1.058-.932.53-3.73 3.311-2.931 4.503.8 1.191 3.331 2.714 6.994-.663 0 0 .866-.066.533.53-.333.596-1.798 1.854-1.265 2.516.532.662.999.662 2.331 0 1.332-.662 8.526-6.621 11.39-5.826 2.864.794 6.727 4.833 7.393 5.826.667.993 3.464 2.384 3.397 1.391-.066-.994-4.129-7.482-1.265-8.078 2.864-.596 12.456.927 12.722 6.753.267 5.826-8.259 2.78-8.259 2.78s-6.062-1.455-5.196 3.774c0 0 .4-1.787 2.531-.463 2.132 1.323 5.729 3.111 8.593.993 0 0-2.398 1.655-1.399 3.377.999 1.72 2.931 2.846 2.198 5.825 0 0 1.998.795 3.131-2.516 1.132-3.309 0-6.554-.933-8.076 0 0-.2-.596.533-1.259.733-.662 4.729-5.117 4.463-8.318zM43.5 59.003C21.152 56.469 7.358 51.592-.001 48.17V9.401h29.138c12.442 0 19.321 4.042 19.321 13.251 0 5.091-1.623 8.91-7.497 11.231 6.801 2.022 9.66 6.513 9.66 12.727 0 6.259-2.751 10.122-7.121 12.393zM24.616 21.999h-4.634v6.358h4.634c2.247 0 3.088-1.665 3.088-3.18 0-1.512-.841-3.178-3.088-3.178zm2.057 18.372h-6.691v8.044h6.691c2.956 0 3.999-1.966 3.999-4.022 0-2.054-1.043-4.022-3.999-4.022zm2.743 34.907l4.42 11.877v7.401H28.9l-.657-2.204h-5.832l-.658 2.204h-7.69l7.177-19.278h8.176zm-2.631 12.115l-.857-2.973a19.237 19.237 0 0 1-.601-2.892c-.114.965-.343 1.983-.599 2.892l-.887 2.973h2.944zm15.337-5.645h1.03l3.544-6.47h8.349l-5.918 9.667 5.918 9.611h-8.349l-3.773-6.474h-.801v6.474h-7.604V75.278h7.604v6.47zm23.701-6.47c4.602 0 7.147 1.486 7.147 4.872 0 1.874-.6 3.277-2.773 4.133 2.515.742 3.574 2.396 3.574 4.68 0 4.382-3.659 5.593-8.177 5.593H55.045V75.278h10.778zm-3.174 14.045h2.202c.972 0 1.316-.608 1.316-1.241 0-.633-.344-1.238-1.316-1.238h-2.202v2.479zm0-6.554h1.888c.915 0 1.258-.608 1.258-1.157 0-.553-.343-1.158-1.258-1.158h-1.888v2.315zm12.086 6.296c0-1.219-.101-2.183-.734-3.019l4.009-10.768h8.175l7.175 19.278h-7.69l-.657-2.204H79.18l-.657 2.204h-7.69l.053-.143c2.6-.719 3.849-2.376 3.849-5.348zm8.82-1.672l-.857-2.973a19.237 19.237 0 0 1-.601-2.892c-.114.965-.344 1.983-.6 2.892l-.886 2.973h2.944zm34.057-11.017v-2.532h6.747v2.532c3.737.312 6.51 1.649 8.058 3.828v9.423c-1.548 2.178-4.321 3.515-8.058 3.827v2.535h-6.747v-2.535c-5.946-.497-9.462-3.581-9.462-8.537 0-4.959 3.516-8.044 9.462-8.541zm6.604 11.377c1.687-.276 2.173-1.542 2.173-2.836 0-1.294-.486-2.564-2.173-2.837v5.673zm-6.46 0V82.08c-1.688.273-2.173 1.543-2.173 2.837 0 1.294.485 2.56 2.173 2.836zm23.26-8.345c0 1.018 0 2.011-.199 3.361l5.946-7.491h6.032v19.278h-7.604v-4.131c0-1.021 0-2.011.2-3.361l-5.947 7.492h-6.032V75.278h7.604v4.13zm28.835 2.204h-4.305v12.944h-7.604V81.612h-3.944v-6.334h15.853v6.334zm9.317.136h3.889v-6.47h7.604v19.278h-7.604v-6.474h-3.889v6.474h-7.604V75.278h7.604v6.47zm28.501-.813l-8.271-.152v1.654h8.291v4.903h-8.291v1.651h8.291v5.565h-15.896V75.278l15.876.151v5.506zm11.672-6.479a10.48 10.48 0 0 1 10.357 8.816h-7.779c-.555-.856-1.477-1.456-2.578-1.456a3.11 3.11 0 0 0-3.12 3.101 3.11 3.11 0 0 0 3.12 3.101c1.507 0 2.705-1.083 2.997-2.495h7.466a10.468 10.468 0 0 1-10.463 9.854c-5.812 0-10.524-4.684-10.524-10.46 0-5.777 4.712-10.461 10.524-10.461zm90.296 6.327h-8.692v1.49h2.629c3.775 0 7.749 1.017 7.749 6.141 0 5.124-3.974 6.142-7.749 6.142h-10.232V75.278h16.295v5.505zm-8.692 8.981h1.202c1.055 0 1.742-.304 1.742-1.35s-.687-1.35-1.742-1.35h-1.202v2.7z"/></svg>

<svg 
 xmlns="http://www.w3.org/2000/svg"
 xmlns:xlink="http://www.w3.org/1999/xlink"
 width="324px" height="96px">
<path fill-rule="evenodd"  fill="rgb(255, 255, 255)"
 d="M262.701,49.260 L278.773,9.401 L302.853,9.401 L323.983,61.809 C305.893,56.764 287.976,51.640 262.701,49.260 ZM292.582,34.257 C291.821,31.787 291.151,29.016 290.813,26.396 C290.474,29.016 289.804,31.787 289.044,34.257 L286.433,42.343 L295.105,42.343 L292.582,34.257 ZM277.107,94.555 L269.402,94.555 L265.773,82.788 L261.825,94.555 L259.787,94.555 L256.158,88.414 L261.825,75.278 L269.530,75.278 L277.107,94.555 ZM273.286,75.278 L280.354,75.278 L283.152,82.758 L284.875,75.278 L291.497,75.278 L291.497,80.952 L284.811,94.555 L277.107,94.555 L279.845,89.053 L273.286,75.278 ZM258.798,94.555 L250.452,94.555 L246.677,88.082 L245.878,88.082 L245.878,94.555 L238.272,94.555 L238.272,75.278 L245.878,75.278 L245.878,81.748 L246.905,81.748 L250.452,75.278 L258.798,75.278 L252.881,84.945 L258.798,94.555 ZM234.585,44.214 L222.797,44.214 L222.797,47.990 C215.629,48.142 207.967,48.480 199.741,49.027 L199.741,9.401 L222.797,9.401 L222.797,26.995 L234.585,26.995 L234.585,9.401 L257.641,9.401 L257.641,48.829 C250.575,48.289 242.934,47.963 234.585,47.902 L234.585,44.214 ZM167.853,26.620 L160.319,52.815 C153.280,53.670 145.945,54.635 138.216,55.748 L156.396,9.401 L179.043,9.401 L195.929,49.301 C189.599,49.762 182.981,50.333 175.964,51.051 L167.853,26.620 ZM63.447,60.461 C56.612,54.093 53.157,45.379 53.157,35.604 C53.157,15.626 67.489,0.012 95.927,0.012 C124.366,0.012 138.811,15.626 138.811,35.604 C138.811,43.526 136.502,50.739 131.988,56.587 C104.503,60.229 81.857,61.135 63.447,60.461 ZM118.096,35.495 C117.830,32.293 117.430,28.057 109.903,23.224 C102.376,18.391 100.178,16.471 100.911,14.551 C101.644,12.631 104.441,9.746 105.773,9.401 C107.106,9.056 106.639,7.665 104.708,7.798 C102.776,7.931 96.049,6.739 90.187,15.280 C90.187,15.280 67.007,13.691 73.535,31.367 C73.535,31.367 74.068,31.896 73.135,32.426 C72.203,32.956 69.405,35.737 70.204,36.928 C71.004,38.120 73.535,39.642 77.198,36.266 C77.198,36.266 78.064,36.200 77.731,36.796 C77.398,37.392 75.933,38.649 76.466,39.312 C76.998,39.974 77.465,39.974 78.797,39.312 C80.129,38.649 87.323,32.691 90.187,33.485 C93.051,34.280 96.914,38.319 97.580,39.312 C98.247,40.305 101.044,41.695 100.977,40.702 C100.911,39.709 96.848,33.221 99.712,32.625 C102.576,32.029 112.168,33.552 112.434,39.378 C112.701,45.204 104.175,42.158 104.175,42.158 C104.175,42.158 98.113,40.702 98.979,45.932 C98.979,45.932 99.379,44.144 101.510,45.469 C103.642,46.792 107.239,48.580 110.103,46.462 C110.103,46.462 107.705,48.117 108.704,49.838 C109.703,51.559 111.635,52.685 110.902,55.664 C110.902,55.664 112.900,56.459 114.033,53.148 C115.165,49.838 114.033,46.594 113.100,45.072 C113.100,45.072 112.900,44.476 113.633,43.813 C114.366,43.151 118.362,38.696 118.096,35.495 ZM43.500,59.003 C21.152,56.468 7.358,51.592 -0.001,48.169 L-0.001,9.401 L29.137,9.401 C41.579,9.401 48.458,13.443 48.458,22.652 C48.458,27.743 46.835,31.562 40.961,33.883 C47.762,35.905 50.621,40.395 50.621,46.610 C50.621,52.869 47.870,56.732 43.500,59.003 ZM24.616,21.999 L19.982,21.999 L19.982,28.356 L24.616,28.356 C26.863,28.356 27.704,26.692 27.704,25.177 C27.704,23.664 26.863,21.999 24.616,21.999 ZM26.673,40.371 L19.982,40.371 L19.982,48.415 L26.673,48.415 C29.629,48.415 30.672,46.449 30.672,44.392 C30.672,42.338 29.629,40.371 26.673,40.371 ZM29.416,75.278 L33.836,87.155 L33.836,94.555 L28.900,94.555 L28.243,92.352 L22.411,92.352 L21.753,94.555 L14.063,94.555 L21.240,75.278 L29.416,75.278 ZM26.785,87.393 L25.928,84.420 C25.670,83.510 25.442,82.493 25.327,81.527 C25.213,82.493 24.984,83.510 24.728,84.420 L23.841,87.393 L26.785,87.393 ZM42.122,81.748 L43.152,81.748 L46.696,75.278 L55.045,75.278 L49.127,84.945 L55.045,94.555 L46.696,94.555 L42.923,88.082 L42.122,88.082 L42.122,94.555 L34.518,94.555 L34.518,75.278 L42.122,75.278 L42.122,81.748 ZM65.823,75.278 C70.425,75.278 72.970,76.764 72.970,80.149 C72.970,82.024 72.370,83.426 70.197,84.283 C72.712,85.025 73.771,86.679 73.771,88.963 C73.771,93.345 70.112,94.555 65.594,94.555 L55.045,94.555 L55.045,75.278 L65.823,75.278 ZM62.649,89.323 L64.851,89.323 C65.823,89.323 66.167,88.715 66.167,88.082 C66.167,87.449 65.823,86.843 64.851,86.843 L62.649,86.843 L62.649,89.323 ZM62.649,82.769 L64.537,82.769 C65.452,82.769 65.795,82.161 65.795,81.611 C65.795,81.059 65.452,80.454 64.537,80.454 L62.649,80.454 L62.649,82.769 ZM74.735,89.065 C74.735,87.846 74.634,86.882 74.001,86.046 L78.010,75.278 L86.185,75.278 L93.360,94.555 L85.670,94.555 L85.013,92.352 L79.180,92.352 L78.523,94.555 L70.833,94.555 L70.886,94.412 C73.486,93.694 74.735,92.037 74.735,89.065 ZM83.555,87.393 L82.698,84.420 C82.440,83.510 82.212,82.493 82.097,81.527 C81.983,82.493 81.753,83.510 81.497,84.420 L80.611,87.393 L83.555,87.393 ZM117.612,76.376 L117.612,73.843 L124.359,73.843 L124.359,76.376 C128.096,76.688 130.869,78.025 132.417,80.204 L132.417,89.627 C130.869,91.805 128.096,93.142 124.359,93.454 L124.359,95.989 L117.612,95.989 L117.612,93.454 C111.666,92.957 108.150,89.873 108.150,84.916 C108.150,79.957 111.666,76.872 117.612,76.376 ZM124.216,87.753 C125.903,87.477 126.389,86.210 126.389,84.916 C126.389,83.622 125.903,82.353 124.216,82.080 L124.216,87.753 ZM117.756,87.753 L117.756,82.080 C116.068,82.353 115.583,83.622 115.583,84.916 C115.583,86.210 116.068,87.477 117.756,87.753 ZM141.016,79.408 C141.016,80.426 141.016,81.419 140.817,82.769 L146.763,75.278 L152.795,75.278 L152.795,94.555 L145.191,94.555 L145.191,90.425 C145.191,89.404 145.191,88.414 145.391,87.064 L139.444,94.555 L133.412,94.555 L133.412,75.278 L141.016,75.278 L141.016,79.408 ZM169.851,81.611 L165.546,81.611 L165.546,94.555 L157.942,94.555 L157.942,81.611 L153.998,81.611 L153.998,75.278 L169.851,75.278 L169.851,81.611 ZM179.168,81.748 L183.057,81.748 L183.057,75.278 L190.661,75.278 L190.661,94.555 L183.057,94.555 L183.057,88.082 L179.168,88.082 L179.168,94.555 L171.564,94.555 L171.564,75.278 L179.168,75.278 L179.168,81.748 ZM207.669,80.934 L199.398,80.783 L199.398,82.437 L207.689,82.437 L207.689,87.340 L199.398,87.340 L199.398,88.991 L207.689,88.991 L207.689,94.555 L191.793,94.555 L191.793,75.278 L207.669,75.429 L207.669,80.934 ZM219.341,74.456 C224.586,74.456 228.900,78.282 229.698,83.272 L221.919,83.272 C221.364,82.415 220.442,81.815 219.341,81.815 C217.618,81.815 216.221,83.203 216.221,84.916 C216.221,86.629 217.618,88.018 219.341,88.018 C220.848,88.018 222.046,86.934 222.338,85.522 L229.804,85.522 C229.482,91.011 224.945,95.377 219.341,95.377 C213.529,95.377 208.817,90.693 208.817,84.916 C208.817,79.140 213.529,74.456 219.341,74.456 ZM309.637,80.783 L300.945,80.783 L300.945,82.272 L303.574,82.272 C307.349,82.272 311.323,83.290 311.323,88.414 C311.323,93.538 307.349,94.555 303.574,94.555 L293.342,94.555 L293.342,75.278 L309.637,75.278 L309.637,80.783 ZM300.945,89.764 L302.147,89.764 C303.202,89.764 303.889,89.460 303.889,88.414 C303.889,87.368 303.202,87.064 302.147,87.064 L300.945,87.064 L300.945,89.764 Z"/>
</svg>
